X: 1
M:4/4
K:F
Q:1/4=70
L:1/4
DAAB | GA3 :| DGGA | FG3 | EGEA | A/2F/2 D3 |:
w:Qua-mor não men-ga-na Se dan-ti-ga cha-ma Mal vi-va-mar-gu - ra
w:Com su-a bran-du-ra
dfcA | G/2 c/2 d3 :| DAAB | GA3 | EGEA | A/2F/2 D3|]
w:Eas vo-zes em-bar - cam Quan-to mais sea-par-tam Mais seou-vo seu gri - to
w:Num si-lên-cioa-fli - to
